assets/icons/cast-24.svg

<svg width="24" height="24" viewBox="0 0 24 24" fill="none" xmlns="http://www.w3.org/2000/svg">
<path d="M5 6C3.89543 6 3 6.89543 3 8V8.5C3 9.05228 2.55228 9.5 2 9.5C1.44772 9.5 1 9.05228 1 8.5V8C1 7.72386 1.02798 7.45425 1.08127 7.19386C1.42761 5.50132 2.84294 4.19818 4.59102 4.02065C4.72549 4.007 4.86193 4 5 4H19C19.2761 4 19.5457 4.02798 19.8061 4.08127C21.6289 4.45425 23 6.067 23 8V16C23 16.2761 22.972 16.5457 22.9187 16.8061C22.5457 18.6289 20.933 20 19 20H14C13.4477 20 13 19.5523 13 19C13 18.4477 13.4477 18 14 18H19C20.1046 18 21 17.1046 21 16V8C21 6.89543 20.1046 6 19 6H5Z" fill="#F2F2F2"/>
<path d="M10.9381 20C10.979 19.6724 11 19.3387 11 19C11 14.5817 7.41828 11 3 11C2.3094 11 1.63924 11.0875 1 11.252V13.3414C1.62556 13.1203 2.29873 13 3 13C6.31371 13 9 15.6863 9 19C9 19.3407 8.9716 19.6748 8.91704 20H10.9381Z" fill="#F2F2F2"/>
<path d="M7.89998 20C7.96557 19.6769 8 19.3425 8 19C8 16.2386 5.76142 14 3 14C2.2889 14 1.61246 14.1484 1 14.416V16C1 16.2421 1.0215 16.4791 1.0627 16.7093C1.58538 16.2668 2.26153 16 3 16C4.65685 16 6 17.3431 6 19C6 19.3506 5.93985 19.6872 5.82929 20H7.89998Z" fill="#F2F2F2"/>
<path d="M4.73732 19.9915C4.90447 19.6993 5 19.3608 5 19C5 17.8954 4.10457 17 3 17C2.35535 17 1.78193 17.305 1.41618 17.7786C2.03407 19.0212 3.27924 19.897 4.73732 19.9915Z" fill="#F2F2F2"/>
</svg>

<svg xmlns="http://www.w3.org/2000/svg" width="24" height="24" viewBox="0 0 24 24"><path d="M5 6a2 2 0 00-2 2v.5a1 1 0 01-2 0V8a4.003 4.003 0 014-4h14a4.001 4.001 0 014 4v8a4.001 4.001 0 01-4 4h-5a1 1 0 110-2h5a2 2 0 002-2V8a2 2 0 00-2-2H5z"/><path d="M10.938 20A8 8 0 001 11.252v2.09A6 6 0 018.917 20h2.021z"/><path d="M7.9 20A5 5 0 001 14.416V16c0 .242.022.48.063.71A3 3 0 015.83 20H7.9z"/><path d="M4.737 19.991a2 2 0 00-3.321-2.213 4.001 4.001 0 003.321 2.213z"/></svg>
